packages/kaspersky-hexa-ui-icons/src/iconsSVGs/24/HomeGarage.svg

<svg width="24" height="24" viewBox="0 0 24 24" fill="none" xmlns="http://www.w3.org/2000/svg">
<path fill-rule="evenodd" clip-rule="evenodd" d="M12.5933 2.94494C12.2405 2.68502 11.7596 2.68502 11.4069 2.94494L1.90687 9.94494C1.46225 10.2726 1.36739 10.8986 1.69501 11.3432C2.02262 11.7878 2.64864 11.8827 3.09326 11.5551L4.00007 10.8869V18.25C4.00007 19.9069 5.34321 21.25 7.00007 21.25H17.0001C18.6569 21.25 20.0001 19.9069 20.0001 18.25V10.8869L20.9069 11.5551C21.3515 11.8827 21.9775 11.7878 22.3051 11.3432C22.6327 10.8986 22.5379 10.2726 22.0933 9.94494L12.5933 2.94494ZM18.0001 9.4132L12.0001 4.99215L6.00007 9.4132V18.25C6.00007 18.8023 6.44778 19.25 7.00007 19.25H8.00007V12.85C8.00007 11.9663 8.71641 11.25 9.60007 11.25H14.4001C15.2837 11.25 16.0001 11.9663 16.0001 12.85V19.25H17.0001C17.5524 19.25 18.0001 18.8023 18.0001 18.25V9.4132ZM14.0001 15.25V13.25H10.0001V15.25H14.0001ZM10.0001 17.25H14.0001V19.25H10.0001V17.25Z" fill="black"/>
</svg>

<svg xmlns="http://www.w3.org/2000/svg" width="24" height="24" fill="none" viewBox="0 0 24 24"><path fill="#000" fill-rule="evenodd" d="M12.5933 2.945a1 1 0 0 0-1.1864 0l-9.5 7c-.4446.3276-.5395.9536-.2119 1.3982s.9536.5395 1.3983.2119L4 10.8869V18.25c0 1.6569 1.3431 3 3 3h10c1.6568 0 3-1.3431 3-3v-7.3631l.9068.6682c.4446.3276 1.0706.2327 1.3982-.2119s.2328-1.0706-.2118-1.3983zm5.4068 6.4682-6-4.421-6 4.421V18.25c0 .5523.4477 1 1 1h1v-6.4c0-.8837.7163-1.6 1.6-1.6h4.8c.8836 0 1.6.7163 1.6 1.6v6.4h1c.5523 0 1-.4477 1-1zm-4 5.8368v-2h-4v2zm-4 2h4v2h-4z"/></svg>
